X: 2
T:Aaron's (Rarified) Air
% Nottingham Music Database
S:Bob McQuillen 1974 for Aaron Garland, via PR
M:4/4
L:1/4
K:G
D|"G"DG "D7"FA|"G"G2 DD|G3/2A/2 Bc|d3d|"C"e3/2d/2 ce|"G"d3/2c/2 Bd|"Am"cB AG|\
"D7"FG AD|
"G"DG "D7"FA|"G"G2 DD|G3/2A/2 Bc|"G"d3"G7"d|"C"eg fe|"G"dg "D7"dc|"G"BA "D7"GF\
|"G"G3G||
"D"FG AB|A2 Dd|"Am"cB AG|"D7"A3D|"G"GA Bc|"D7"d3/2c/2 BA|"G"Bc de|"G"d3"G7"d|
"C"ed cB|"D7"cB Ad|"Am"e3/2d/2 cB|"D7"A3d|"C"ed ef|ge dc|"G"B2 "D7"A2|"G"G3||


